rospo-icon-theme-classic-common/32x32/apps/bpython.svg

<svg height="32" width="32" xmlns="http://www.w3.org/2000/svg"><path d="m8.5416668 3.0001688c-3.0704003 0-5.5416668 1.7654166-5.5416668 3.9583332v5.541666 8.499833h11.666529 2.375c2.192916 0 3.958334-2.471266 3.958334-5.541666v-1.083129c0-3.0704-1.765418-5.375038-3.958334-5.375038h-7.041529v3.000038h2.942839 1.671298c1.303219 0 2.385726.941967 2.385726 2.111524v1.610082c0 1.169555-1.082506 2.278189-2.385726 2.278189h-5.614137v-2.278189-1.11012-1.47819-.633334-3.1666659-1.3333341h6v-1.041666c0-2.1929166-2.350593-3.9583332-5.4209937-3.9583332z" opacity=".2"/><path d="m15.541667 31c-3.070401 0-5.541667-1.765416-5.541667-3.958333v-5.541666-8.499833h11.666529 2.375c2.192916 0 3.958334 2.471266 3.958334 5.541666v1.083129c0 3.0704-1.765418 5.375038-3.958334 5.375038h-7.041529v-3.000038h2.942839 1.671298c1.303219 0 2.385726-.941967 2.385726-2.111524v-1.610082c0-1.169555-1.082506-2.278189-2.385726-2.278189h-5.614137v2.278189 1.11012 1.47819.633334 3.166666 1.333334h6v1.041666c0 2.192917-2.350593 3.958333-5.420994 3.958333z" opacity=".2"/><path d="m8.5416668 2.0000008c-3.0704003 0-5.5416668 1.7654166-5.5416668 3.9583332v5.541666 8.499833h11.666529 2.375c2.192916 0 3.958334-2.471266 3.958334-5.541666v-1.083129c0-3.0704-1.765418-5.375038-3.958334-5.375038h-7.041529v3.000038h2.942839 1.671298c1.303219 0 2.385726.941967 2.385726 2.111524v1.610082c0 1.169555-1.082506 2.278189-2.385726 2.278189h-5.614137v-2.278189-1.11012-1.47819-.633334-3.1666659-1.3333341h6v-1.041666c0-2.1929166-2.350593-3.9583332-5.4209937-3.9583332z" fill="#4795d1"/><path d="m8.5410156 2c-3.0704003 0-5.5410156 1.7660678-5.5410156 3.9589844v1c0-2.1929166 2.4706153-3.9589844 5.5410156-3.9589844h1.0371094c3.070401 0 5.421875 1.7660678 5.421875 3.9589844v-1c0-2.1929166-2.351474-3.9589844-5.421875-3.9589844zm1.4589844 6v1h7.041016c2.192916 0 3.958984 2.3046 3.958984 5.375v-1c0-3.0704-1.766068-5.375-3.958984-5.375h-2.041016zm7 6.720703c0 1.169555-1.083499 2.279297-2.386719 2.279297h-5.613281v1h5.613281c1.30322 0 2.386719-1.107789 2.386719-2.277344z" fill="#fff" opacity=".2"/><path d="m12 4.000167a1.0000005 1.0000005 0 0 0 -1 1.0000006 1.0000005 1.0000005 0 0 0 1 1.0000004 1.0000005 1.0000005 0 0 0 1-1.0000004 1.0000005 1.0000005 0 0 0 -1-1.0000006z" opacity=".2"/><path d="m12 3a1.0000005 1.0000005 0 0 0 -1 1.0000006 1.0000005 1.0000005 0 0 0 1 1.0000004 1.0000005 1.0000005 0 0 0 1-1.0000004 1.0000005 1.0000005 0 0 0 -1-1.0000006z" fill="#fff"/><path d="m15.541667 29.999832c-3.070401 0-5.541667-1.765416-5.541667-3.958333v-5.541666-8.499833h11.666529 2.375c2.192916 0 3.958334 2.471266 3.958334 5.541666v1.083129c0 3.0704-1.765418 5.375038-3.958334 5.375038h-7.041529v-3.000038h2.942839 1.671298c1.303219 0 2.385726-.941967 2.385726-2.111524v-1.610082c0-1.169555-1.082506-2.278189-2.385726-2.278189h-5.614137v2.278189 1.11012 1.47819.633334 3.166666 1.333334h6v1.041666c0 2.192917-2.350593 3.958333-5.420994 3.958333z" fill="#ffc851"/><path d="m10 12v1h11.666016 2.375c2.192916 0 3.958984 2.470616 3.958984 5.541016v-1c0-3.0704-1.766068-5.541016-3.958984-5.541016h-2.375zm14 6.888672c0 1.169557-1.0835 2.111328-2.386719 2.111328h-1.669922-2.943359v1h2.943359 1.669922c1.303219 0 2.386719-.941771 2.386719-2.111328zm-8 6.111328v1h6v-1h-5z" fill="#fff" opacity=".2"/><path d="m19 30a1.0000005 1.0000005 0 0 1 -1-1.000001 1.0000005 1.0000005 0 0 1 1-1 1.0000005 1.0000005 0 0 1 1 1 1.0000005 1.0000005 0 0 1 -1 1.000001z" opacity=".2"/><path d="m19 28.999833a1.0000005 1.0000005 0 0 1 -1-1.000001 1.0000005 1.0000005 0 0 1 1-1 1.0000005 1.0000005 0 0 1 1 1 1.0000005 1.0000005 0 0 1 -1 1.000001z" fill="#fff"/><path d="m16.630859 12c .229028.32333.369141.701239.369141 1.111328v1.609375c0 .093746-.017784.186874-.03125.279297h3.992188c.012598-.180756.039062-.35547.039062-.541016v-1.083984c0-.482098-.056803-.936616-.138672-1.375z" fill="#4795d1"/></svg>

<svg xmlns="http://www.w3.org/2000/svg" width="32" height="32" version="1">
 <path style="opacity:0.2" d="M 8.5416668,3.0001688 C 5.4712665,3.0001688 3,4.7655854 3,6.958502 l 0,5.541666 0,8.499833 11.666529,0 2.375,0 c 2.192916,0 3.958334,-2.471266 3.958334,-5.541666 l 0,-1.083129 c 0,-3.0704 -1.765418,-5.375038 -3.958334,-5.375038 l -7.041529,0 0,3.000038 2.942839,0 1.671298,0 c 1.303219,0 2.385726,0.941967 2.385726,2.111524 l 0,1.610082 c 0,1.169555 -1.082506,2.278189 -2.385726,2.278189 l -5.614137,0 0,-2.278189 0,-1.11012 0,-1.47819 0,-0.633334 0,-3.1666659 0,-1.3333341 6,0 0,-1.041666 C 15,4.7655854 12.649407,3.0001688 9.5790063,3.0001688 Z"/>
 <path style="opacity:0.2" d="M 15.541667,31 C 12.471266,31 10,29.234584 10,27.041667 l 0,-5.541666 0,-8.499833 11.666529,0 2.375,0 c 2.192916,0 3.958334,2.471266 3.958334,5.541666 l 0,1.083129 c 0,3.0704 -1.765418,5.375038 -3.958334,5.375038 l -7.041529,0 0,-3.000038 2.942839,0 1.671298,0 c 1.303219,0 2.385726,-0.941967 2.385726,-2.111524 l 0,-1.610082 c 0,-1.169555 -1.082506,-2.278189 -2.385726,-2.278189 l -5.614137,0 0,2.278189 0,1.11012 0,1.47819 0,0.633334 0,3.166666 0,1.333334 6,0 0,1.041666 C 22,29.234584 19.649407,31 16.579006,31 Z"/>
 <path style="fill:#4795d1" d="M 8.5416668,2.0000008 C 5.4712665,2.0000008 3,3.7654174 3,5.958334 L 3,11.5 l 0,8.499833 11.666529,0 2.375,0 c 2.192916,0 3.958334,-2.471266 3.958334,-5.541666 l 0,-1.083129 C 20.999863,10.304638 19.234445,8 17.041529,8 L 10,8 l 0,3.000038 2.942839,0 1.671298,0 c 1.303219,0 2.385726,0.941967 2.385726,2.111524 l 0,1.610082 c 0,1.169555 -1.082506,2.278189 -2.385726,2.278189 L 9,16.999833 9,14.721644 9,13.611524 9,12.133334 9,11.5 9,8.3333341 9,7 15,7 15,5.958334 C 15,3.7654174 12.649407,2.0000008 9.5790063,2.0000008 Z"/>
 <path style="fill:#ffffff;opacity:0.2" d="M 8.5410156 2 C 5.4706153 2 3 3.7660678 3 5.9589844 L 3 6.9589844 C 3 4.7660678 5.4706153 3 8.5410156 3 L 9.578125 3 C 12.648526 3 15 4.7660678 15 6.9589844 L 15 5.9589844 C 15 3.7660678 12.648526 2 9.578125 2 L 8.5410156 2 z M 10 8 L 10 9 L 17.041016 9 C 19.233932 9 21 11.3046 21 14.375 L 21 13.375 C 21 10.3046 19.233932 8 17.041016 8 L 15 8 L 10 8 z M 17 14.720703 C 17 15.890258 15.916501 17 14.613281 17 L 9 17 L 9 18 L 14.613281 18 C 15.916501 18 17 16.892211 17 15.722656 L 17 14.720703 z"/>
 <path style="opacity:0.2" d="M 12,4.000167 A 1.0000005,1.0000005 0 0 0 11,5.0001676 1.0000005,1.0000005 0 0 0 12,6.000168 1.0000005,1.0000005 0 0 0 13,5.0001676 1.0000005,1.0000005 0 0 0 12,4.000167 Z"/>
 <path style="fill:#ffffff" d="M 12,3 A 1.0000005,1.0000005 0 0 0 11,4.0000006 1.0000005,1.0000005 0 0 0 12,5.000001 1.0000005,1.0000005 0 0 0 13,4.0000006 1.0000005,1.0000005 0 0 0 12,3 Z"/>
 <path style="fill:#ffc851" d="M 15.541667,29.999832 C 12.471266,29.999832 10,28.234416 10,26.041499 L 10,20.499833 10,12 l 11.666529,0 2.375,0 c 2.192916,0 3.958334,2.471266 3.958334,5.541666 l 0,1.083129 c 0,3.0704 -1.765418,5.375038 -3.958334,5.375038 l -7.041529,0 0,-3.000038 2.942839,0 1.671298,0 c 1.303219,0 2.385726,-0.941967 2.385726,-2.111524 l 0,-1.610082 C 23.999863,16.108634 22.917357,15 21.614137,15 L 16,15 l 0,2.278189 0,1.11012 0,1.47819 0,0.633334 0,3.166666 0,1.333334 6,0 0,1.041666 c 0,2.192917 -2.350593,3.958333 -5.420994,3.958333 z"/>
 <path style="fill:#ffffff;opacity:0.2" d="M 10 12 L 10 13 L 21.666016 13 L 24.041016 13 C 26.233932 13 28 15.470616 28 18.541016 L 28 17.541016 C 28 14.470616 26.233932 12 24.041016 12 L 21.666016 12 L 10 12 z M 24 18.888672 C 24 20.058229 22.9165 21 21.613281 21 L 19.943359 21 L 17 21 L 17 22 L 19.943359 22 L 21.613281 22 C 22.9165 22 24 21.058229 24 19.888672 L 24 18.888672 z M 16 25 L 16 26 L 22 26 L 22 25 L 17 25 L 16 25 z"/>
 <path style="opacity:0.2" d="m 19,30 a 1.0000005,1.0000005 0 0 1 -1,-1.000001 1.0000005,1.0000005 0 0 1 1,-1 1.0000005,1.0000005 0 0 1 1,1 A 1.0000005,1.0000005 0 0 1 19,30 Z"/>
 <path style="fill:#ffffff" d="m 19,28.999833 a 1.0000005,1.0000005 0 0 1 -1,-1.000001 1.0000005,1.0000005 0 0 1 1,-1 1.0000005,1.0000005 0 0 1 1,1 1.0000005,1.0000005 0 0 1 -1,1.000001 z"/>
 <path style="fill:#4795d1" d="M 16.630859,12 C 16.859887,12.32333 17,12.701239 17,13.111328 l 0,1.609375 C 17,14.814449 16.982216,14.907577 16.96875,15 l 3.992188,0 C 20.973536,14.819244 21,14.64453 21,14.458984 L 21,13.375 C 21,12.892902 20.943197,12.438384 20.861328,12 Z"/>
</svg>
